src/icons/svg/history.svg

<?xml version="1.0" encoding="UTF-8"?>
<svg width="40px" height="40px" viewBox="0 0 40 40" version="1.1" xmlns="http://www.w3.org/2000/svg"
>
    <path d="M18.7518312,7.49682586 C18.0603575,7.49682586 17.5017092,8.05547417 17.5017092,8.74694794 L17.5017092,21.2481688 C17.5017092,21.9396425 18.0603575,22.4982908 18.7518312,22.4982908 L28.7528079,22.4982908 C29.4442817,22.4982908 30.00293,21.9396425 30.00293,21.2481688 C30.00293,20.556695 29.4442817,19.9980467 28.7528079,19.9980467 L20.0019533,19.9980467 L20.0019533,8.74694794 C20.0019533,8.05547417 19.443305,7.49682586 18.7518312,7.49682586 Z"
          id="路径"></path>
    <path d="M38.4334408,12.2121301 C37.4255298,9.82908487 35.9839828,7.69215744 34.147866,5.85604063 C32.3117492,4.01992382 30.1709151,2.57837679 27.7917765,1.57046587 C25.3266921,0.527395253 22.7053423,0 20.0058599,0 C15.892177,0 11.9386659,1.23840219 8.57505616,3.58628772 C6.94989745,4.7113976 5.50835042,6.07090536 4.28557476,7.62183807 C3.61754078,8.46957711 3.01982615,9.36810235 2.50024416,10.3056939 L2.50024416,6.24279715 C2.50024416,5.55132337 1.94159586,4.99267507 1.25012208,4.99267507 C0.558648305,4.99267507 0,5.55132337 0,6.24279715 L0,13.7435296 C0,14.4350034 0.558648305,14.9936517 1.25012208,14.9936517 L7.50073249,14.9936517 C8.19220627,14.9936517 8.75085458,14.4350034 8.75085458,13.7435296 C8.75085458,13.0520559 8.19220627,12.4934076 7.50073249,12.4934076 L4.18400234,12.4934076 C7.0553765,6.46156851 13.2591073,2.4924309 20.0019533,2.4924309 C29.6513331,2.4924309 37.5036625,10.3447602 37.5036625,19.9941401 C37.5036625,29.6435199 29.6513331,37.4958492 20.0019533,37.4958492 C11.2198457,37.4958492 3.75817951,30.9366149 2.64478953,22.2443598 C2.55884364,21.5606993 1.92987596,21.076277 1.24621545,21.1622229 C0.562554937,21.2481688 0.0781326301,21.8771364 0.164078523,22.560797 C0.77741967,27.3464205 3.11358531,31.7531009 6.73893935,34.9682586 C10.3994531,38.2107628 15.106944,39.9960934 20.0019533,39.9960934 C22.7014357,39.9960934 25.3227854,39.4686981 27.7878699,38.4256275 C30.1709151,37.4177166 32.3078426,35.9761695 34.1439594,34.1400527 C35.9800762,32.3039359 37.4216232,30.1631019 38.4295341,27.7839633 C39.4726047,25.3188788 40,22.6975291 40,19.9980467 C40,17.2985643 39.4765114,14.6772146 38.4334408,12.2121301 Z"
          id="路径"></path>
</svg>

<svg width="40" height="40" xmlns="http://www.w3.org/2000/svg"><path d="M18.752 7.497c-.692 0-1.25.558-1.25 1.25v12.501c0 .692.558 1.25 1.25 1.25h10c.692 0 1.25-.558 1.25-1.25 0-.691-.558-1.25-1.25-1.25h-8.75V8.747c0-.692-.559-1.25-1.25-1.25z"/><path d="M38.433 12.212a19.924 19.924 0 0 0-4.285-6.356 19.967 19.967 0 0 0-6.356-4.286A19.875 19.875 0 0 0 20.006 0a19.872 19.872 0 0 0-11.43 3.586 19.844 19.844 0 0 0-4.29 4.036A20.01 20.01 0 0 0 2.5 10.306V6.243c0-.692-.558-1.25-1.25-1.25C.56 4.993 0 5.55 0 6.243v7.5c0 .692.559 1.25 1.25 1.25H7.5c.692 0 1.25-.558 1.25-1.25 0-.69-.558-1.25-1.25-1.25H4.185c2.871-6.031 9.075-10 15.818-10 9.65 0 17.502 7.852 17.502 17.501 0 9.65-7.853 17.502-17.502 17.502-8.782 0-16.244-6.56-17.357-15.252a1.252 1.252 0 0 0-1.399-1.082 1.252 1.252 0 0 0-1.082 1.399A19.986 19.986 0 0 0 6.74 34.968a19.98 19.98 0 0 0 13.263 5.028 19.924 19.924 0 0 0 14.142-5.856 19.967 19.967 0 0 0 4.286-6.356A19.875 19.875 0 0 0 40 19.998c0-2.7-.523-5.32-1.567-7.786z"/></svg>
